assets/images/ico_attachment.svg

<svg width="16" height="15" viewBox="0 0 16 15" fill="none" xmlns="http://www.w3.org/2000/svg">
<path d="M5.57188 14.9381C4.21514 14.9381 2.94307 14.4286 1.98426 13.5018C0.00524744 11.5887 0.00524744 8.47671 1.98426 6.56571L7.42812 1.3033C8.12236 0.632203 9.0452 0.263916 10.0273 0.263916C11.0094 0.263916 11.9322 0.634249 12.6265 1.3033C14.0594 2.68847 14.0594 4.94116 12.6265 6.32632L7.67788 11.11C7.24821 11.5253 6.67673 11.7545 6.06927 11.7545C5.46181 11.7545 4.89033 11.5253 4.46067 11.11C3.57382 10.2527 3.57382 8.85727 4.46067 7.99998L8.66844 3.93451C8.87375 3.73604 9.20606 3.73604 9.41137 3.93451C9.61668 4.13297 9.61668 4.4542 9.41137 4.65267L5.20359 8.71814C4.72524 9.18055 4.72524 9.93144 5.20359 10.3918C5.665 10.8399 6.47354 10.8399 6.93496 10.3918L11.8835 5.60817C12.9059 4.61788 12.9059 3.0097 11.8835 2.01942C10.8612 1.03118 9.19547 1.03118 8.17105 2.01942L2.72718 7.28182C1.96732 8.01635 1.54824 8.99436 1.54824 10.0317C1.54824 11.069 1.96732 12.047 2.72718 12.7816C3.48704 13.5161 4.49876 13.9212 5.57188 13.9212C6.6471 13.9212 7.65671 13.5161 8.41657 12.7816L14.6034 6.80305C14.8087 6.60459 15.141 6.60459 15.3463 6.80305C15.5516 7.00152 15.5516 7.32274 15.3463 7.52121L9.15949 13.5018C8.20279 14.4286 6.92861 14.9381 5.57188 14.9381Z" fill="#375374"/>
</svg>

<svg width="16" height="15" fill="none" xmlns="http://www.w3.org/2000/svg"><path d="M5.572 14.938a5.126 5.126 0 0 1-3.588-1.436 4.794 4.794 0 0 1 0-6.936l5.444-5.263a3.715 3.715 0 0 1 2.6-1.04c.981 0 1.904.371 2.598 1.04a3.472 3.472 0 0 1 0 5.023L7.678 11.11a2.301 2.301 0 0 1-1.609.645c-.607 0-1.179-.23-1.608-.645a2.15 2.15 0 0 1 0-3.11l4.207-4.065a.538.538 0 0 1 .743 0 .496.496 0 0 1 0 .718L5.204 8.718a1.155 1.155 0 0 0 0 1.674c.461.448 1.27.448 1.731 0l4.949-4.784a2.483 2.483 0 0 0 0-3.589 2.696 2.696 0 0 0-3.713 0L2.727 7.282a3.802 3.802 0 0 0-1.179 2.75c0 1.037.42 2.015 1.18 2.75a4.07 4.07 0 0 0 2.844 1.14 4.067 4.067 0 0 0 2.845-1.14l6.186-5.979a.538.538 0 0 1 .743 0 .496.496 0 0 1 0 .718l-6.187 5.98a5.122 5.122 0 0 1-3.587 1.437z" fill="#375374"/></svg>
